X:1
T:Ainsworth (Hastings), 77.77
T:Ainsworth (Hastings), 77.77
T:Thomasw Hastings, 1858
T:Public Domain Courtesy of the Cyber Hymnal™
C:Thomasw Hastings, 1858
Z:Public Domain
Z:Courtesy of the Cyber Hymnal™
%%score ( 1 2 ) ( 3 4 )
L:1/8
Q:1/4=110
M:4/4
K:C
V:1 treble 
V:2 treble 
V:3 bass 
V:4 bass 
V:1
 C2 [CE]2 [CG]2 [Ec]2 | [Ge]2 [Gc]2 [Gd]4 | [GB]2 [Gd]2 (dc) (BA) | [DG]2 [D^F]2 [DG]4 | %4
 [DG]2 [GB]2 [Gd]2 [Ge]2 | [Gf]2 (ed) [Ge]4 | [Ge]2 [Gc]2 [FA]2 [Ad]2 | [Gc]2 [FB]2 [Ec]4 |] %8
V:2
 C2 x6 | x8 | x4 E2 E2 | x8 | x8 | x2 G2 x4 | x8 | x8 |] %8
V:3
 [C,E,]2 [C,G,]2 [E,C]2 [C,C]2 | C2 [E,C]2 [G,B,]4 | [G,D]2 [G,B,]2 [C,C]2 [C,C]2 | %3
 [D,B,]2 [D,A,]2 [G,B,]4 | [G,B,]2 [G,D]2 [G,B,]2 [G,C]2 | [G,D]2 (CB,) C4 | %6
 [C,C]2 [E,C]2 [F,C]2 [D,F]2 | [G,E]2 [G,D]2 [C,C]4 |] %8
V:4
 x8 | C2 x6 | x8 | x8 | x8 | x2 G,2 C4 | x8 | x8 |] %8

